!!!COM: Anonymous
!!!OTL: Jesu Jesu Jesu 
!!!AGN: Song; Carnival Song
!!!SCT: Ano3239.1
!!!SCA: Ano3239.1
!!!SMS: Canto degli spazzacamini
!!!folio:
!!!voices: 4
**kern	**text	**text	**text	**text	**text	**kern	**text	**text	**text	**text	**text	**kern	**text	**text	**text	**text	**text	**kern	**text	**text	**text	**text	**text
*staff4	*staff4	*staff4	*staff4	*staff4	*staff4	*staff3	*staff3	*staff3	*staff3	*staff3	*staff3	*staff2	*staff2	*staff2	*staff2	*staff2	*staff2	*staff1	*staff1	*staff1	*staff1	*staff1	*staff1
*Ivox	*	*	*	*	*	*Ivox	*	*	*	*	*	*Ivox	*	*	*	*	*	*Ivox	*	*	*	*	*
*I"Bassus	*	*	*	*	*	*I"Altus	*	*	*	*	*	*I"Tenor	*	*	*	*	*	*I"Superius	*	*	*	*	*
*I'B	*	*	*	*	*	*I'A	*	*	*	*	*	*I'T	*	*	*	*	*	*I'S	*	*	*	*	*
*clefF4	*	*	*	*	*	*clefGv2	*	*	*	*	*	*clefGv2	*	*	*	*	*	*clefG2	*	*	*	*	*
*k[]	*	*	*	*	*	*k[]	*	*	*	*	*	*k[]	*	*	*	*	*	*k[]	*	*	*	*	*
*M6/2	*	*	*	*	*	*M6/2	*	*	*	*	*	*M6/2	*	*	*	*	*	*M6/2	*	*	*	*	*
*met(C.)	*	*	*	*	*	*met(C.)	*	*	*	*	*	*met(C.)	*	*	*	*	*	*met(C.)	*	*	*	*	*
2r	.	.	.	.	.	2r	.	.	.	.	.	2r	.	.	.	.	.	2r	.	.	.	.	.
2r	.	.	.	.	.	2r	.	.	.	.	.	2r	.	.	.	.	.	2r	.	.	.	.	.
2G	Je-	&	&	&	&	2d	Je-	&	&	&	&	2g	Je-	&	&	&	&	2g	Je-	&	&	&	&
=1	=1	=1	=1	=1	=1	=1	=1	=1	=1	=1	=1	=1	=1	=1	=1	=1	=1	=1	=1	=1	=1	=1	=1
1D	-su,	.	.	.	.	1d	-su,	.	.	.	.	1f	-su,	.	.	.	.	1a	-su,	.	.	.	.
2E	Je-	.	.	.	.	2B	Je-	.	.	.	.	2e	Je-	.	.	.	.	2g	Je-	.	.	.	.
1D	-su,	.	.	.	.	1A	-su,	.	.	.	.	1f	-su,	.	.	.	.	1a	-su,	.	.	.	.
2D	Je-	.	.	.	.	2A	Je-	.	.	.	.	2f	Je-	.	.	.	.	2a	Je-	.	.	.	.
=2	=2	=2	=2	=2	=2	=2	=2	=2	=2	=2	=2	=2	=2	=2	=2	=2	=2	=2	=2	=2	=2	=2	=2
1G	-su,	.	.	.	.	1B	-su,	.	.	.	.	2.g	-su,	.	.	.	.	2.b	-su,	.	.	.	.
.	.	.	.	.	.	.	.	.	.	.	.	4f	.	.	.	.	.	4a	.	.	.	.	.
2C	.	.	.	.	.	2c	.	.	.	.	.	2e	.	.	.	.	.	2g	.	.	.	.	.
1C	.	.	.	.	.	1c	.	.	.	.	.	1e	.	.	.	.	.	1g	.	.	.	.	.
2C	O-	.	.	.	.	2c	O-	.	.	.	.	2c	O-	.	.	.	.	2g	O-	.	.	.	.
=3	=3	=3	=3	=3	=3	=3	=3	=3	=3	=3	=3	=3	=3	=3	=3	=3	=3	=3	=3	=3	=3	=3	=3
1C	-gnun	.	.	.	.	1g	-gnun	.	.	.	.	1c	-gnun	.	.	.	.	1cc	-gnun	.	.	.	.
2G	chia-	.	.	.	.	2g	chia-	.	.	.	.	2d	chia-	.	.	.	.	2b	chia-	.	.	.	.
2C	-mi	.	.	.	.	4e	-mi	.	.	.	.	2e	-mi	.	.	.	.	2cc	-mi	.	.	.	.
.	.	.	.	.	.	4c	.	.	.	.	.	.	.	.	.	.	.	.	.	.	.	.	.
1D	Je-	.	.	.	.	1d	Je-	.	.	.	.	1f#i	Je-	.	.	.	.	1a	Je-	.	.	.	.
=4	=4	=4	=4	=4	=4	=4	=4	=4	=4	=4	=4	=4	=4	=4	=4	=4	=4	=4	=4	=4	=4	=4	=4
1.GG	-su.	.	.	.	.	[0.d	-su.	.	.	.	.	[0.g	-su.	.	.	.	.	[0.g	-su.	.	.	.	.
[1.G	.	.	.	.	.	.	.	.	.	.	.	.	.	.	.	.	.	.	.	.	.	.	.
=5	=5	=5	=5	=5	=5	=5	=5	=5	=5	=5	=5	=5	=5	=5	=5	=5	=5	=5	=5	=5	=5	=5	=5
1.G]	.	.	.	.	.	1.d]	.	.	.	.	.	1.g]	.	.	.	.	.	1.g]	.	.	.	.	.
2r	.	.	.	.	.	2r	.	.	.	.	.	2r	.	.	.	.	.	2r	.	.	.	.	.
2r	.	.	.	.	.	2r	.	.	.	.	.	2r	.	.	.	.	.	2r	.	.	.	.	.
2G	Chia-	Eg-	Se	Je-	Je-	2d	Chia-	-Eg-	Se	Je-	Je-	2g	Chia-	Eg-	Se	Je-	Je-	2g	Chia-	Eg-	Se	Je-	Je-
=6	=6	=6	=6	=6	=6	=6	=6	=6	=6	=6	=6	=6	=6	=6	=6	=6	=6	=6	=6	=6	=6	=6	=6
1G	-ma-	-li e	tu	-su	-su	1B	-ma-	li e	tu	-su	-su	1g	-ma-	-li e	tu	-su	-su	1b	-ma-	-li e	tu	-su	-su
2A	-te	quel	ti	sem-	pien	2c	-te	quel	ti	sem-	pien	2f	-te	quel	ti	sem-	pien	2a	-te	quel	ti	sem-	pien
2G	que-	no-	sen-	-pre	di	2B	que-	-no-	sen-	-pre	di	2g	que-	no-	sen-	-pre	di	2b	que-	no-	sen-	-pre	di
1A	-sto	-me	-ti in	chia-	dol-	1c	-sto	me	-ti in	chia-	dol-	1e	-sto	-me	-ti in	chia-	dol-	1cc	-sto	-me	-ti in	chia-	dol-
=7	=7	=7	=7	=7	=7	=7	=7	=7	=7	=7	=7	=7	=7	=7	=7	=7	=7	=7	=7	=7	=7	=7	=7
1.D	no-	san-	pe-	-mia-	-cez-	1.A	no-	-san-	pe-	-mia-	-cez-	1.d	no-	san-	pe-	-mia-	-cez-	2.dd	no-	san-	pe-	-mia-	-cez-
.	.	.	.	.	.	.	.	.	.	.	.	.	.	.	.	.	.	4cc	.	.	.	.	.
.	.	.	.	.	.	.	.	.	.	.	.	.	.	.	.	.	.	2b	.	.	.	.	.
1D	-me	-to,	-ne,	-mo,	-za,	1A	-me	to,	-ne,	-mo,	-za,	1d	-me	-to,	-ne,	-mo,	-za,	1a	-me	-to,	-ne,	-mo,	-za,
2D	Col	Che	Chia-	Che	Je-	2d	Col	Che	Chia-	Che	Je-	2d	Col	Che	Chia-	Che	Je-	2a	Col	Che	Chia-	Che	Je-
=8	=8	=8	=8	=8	=8	=8	=8	=8	=8	=8	=8	=8	=8	=8	=8	=8	=8	=8	=8	=8	=8	=8	=8
1G	co-	da	-ma	per	-su	1B	co-	da	-ma	per	-su	1d	co-	da	-ma	per	-su	1b	co-	da	-ma	per	-su
2E	-re, e	sa-	Je-	noi	e il	2G	-re, e	-sa-	Je-	noi	e il	2e	-re, e	sa-	Je-	noi	e il	2g	-re, e	sa-	Je-	noi	e il
2D	con	-lu-	-su	mo-	mio	2A	con	-lu-	-su	mo-	mio	2f	con	-lu-	-su	mo-	mio	2a	con	-lu-	-su	mo-	mio
1G	la	-te al	col	-ri in	di-	1G	la	te al	col	-ri in	di-	1d	la	-te al	col	-ri in	di-	1b	la	-te al	col	-ri in	di-
=9	=9	=9	=9	=9	=9	=9	=9	=9	=9	=9	=9	=9	=9	=9	=9	=9	=9	=9	=9	=9	=9	=9	=9
1.C	men-	mon-	co-	cro-	-si-	1.g	men-	-mon-	co-	cro-	-si-	1.c	men-	mon-	co-	cro-	-si-	1.cc	men-	mon-	co-	cro-	-si-
1C	-te,	-do,	-re,	-ce,	-o,	1g	-te,	do,	-re,	-ce,	-o,	1c	-te,	-do,	-re,	-ce,	-o,	1cc	-te,	-do,	-re,	-ce,	-o,
2G	E	Con-	E	Je-	Je-	2d	E	-Con-	E	Je-	Je-	2g	E	Con-	E	Je-	Je-	2g	E	Con-	E	Je-	Je-
=10	=10	=10	=10	=10	=10	=10	=10	=10	=10	=10	=10	=10	=10	=10	=10	=10	=10	=10	=10	=10	=10	=10	=10
1G	sen-	-ver-	lui	-su	-su	1B	sen-	-ver-	lui	-su	-su	1g	sen-	-ver-	lui	-su	-su	1b	sen-	-ver-	lui	-su	-su
2A	-ti-	-te il	per	sem-	som-	2c	-ti-	te il	per	sem-	som-	2f	-ti-	-te il	per	sem-	som-	2a	-ti-	-te il	per	sem-	som-
2G	-re-	nos-	gra-	-pre	-ma	2B	-re-	-nos-	gra-	-pre	-ma	2g	-re-	nos-	gra-	-pre	-ma	2b	-re-	nos-	gra-	-pre	-ma
1A	-te	-tro	-zia	lau-	bel-	1c	-te	tro	-zia	lau-	bel-	1e	-te	-tro	-zia	lau-	bel-	1cc	-te	-tro	-zia	lau-	bel-
=11	=11	=11	=11	=11	=11	=11	=11	=11	=11	=11	=11	=11	=11	=11	=11	=11	=11	=11	=11	=11	=11	=11	=11
1.D	co-	pian-	vie-	-dia-	-lez-	1.A	co-	-pian-	vie-	-dia-	-lez-	1.d	co-	pian-	vie-	-dia-	-lez-	2.dd	co-	pian-	vie-	-dia-	-lez-
.	.	.	.	.	.	.	.	.	.	.	.	.	.	.	.	.	.	4cc	.	.	.	.	.
.	.	.	.	.	.	.	.	.	.	.	.	.	.	.	.	.	.	2b	.	.	.	.	.
1D	-me,	-to	-ne	-mo,	-za,	1A	-me,	to	-ne	-mo,	-za,	1d	-me,	-to	-ne	-mo,	-za,	1a	-me,	-to	-ne	-mo,	-za,
2D	Eg-	Nel	A	Col	Je-	2d	Eg-	Nel	A	Col	Je-	2d	Eg-	Nel	A	Col	Je-	2a	Eg-	Nel	A	Col	Je-
=12	=12	=12	=12	=12	=12	=12	=12	=12	=12	=12	=12	=12	=12	=12	=12	=12	=12	=12	=12	=12	=12	=12	=12
1G	-li e	suo	le-	co-	-su	1B	-li e	suo	le-	co-	-su	1d	-li e	suo	le-	co-	-su	1b	-li e	suo	le-	co-	-su
2E	dol-	gau-	-var-	-re, e	ver	2G	dol-	-gau-	-var-	-re, e	ver	2e	dol-	gau-	-var-	-re, e	ver	2g	dol-	gau-	-var-	-re, e	ver
2D	-ce, e	-dio	-ti il	con	uo-	2A	-ce, e	dio	-ti il	con	uo-	2f	-ce, e	-dio	-ti il	con	uo-	2a	-ce, e	-dio	-ti il	con	uo-
1G	cle-	gio-	do-	Ia	-mo, e	1G	cle-	-gio-	do-	Ia	-mo, e	1d	cle-	gio-	do-	Ia	-mo, e	1b	cle-	gio-	do-	Ia	-mo, e
=13	=13	=13	=13	=13	=13	=13	=13	=13	=13	=13	=13	=13	=13	=13	=13	=13	=13	=13	=13	=13	=13	=13	=13
1.C	-men-	-con-	-lo-	vo-	Di-	1.g	-men-	-con-	-lo-	vo-	Di-	1.c	-men-	-con-	-lo-	vo-	Di-	1.cc	-men-	-con-	-lo-	vo-	Di-
1C	-te,	-do;	-re,	-ce:	-o,	1g	-te,	do;	-re,	-ce:	-o,	1c	-te,	-do;	-re,	-ce:	-o,	1cc	-te,	-do;	-re,	-ce:	-o,
2r	.	.	.	.	.	2r	.	.	.	.	.	2r	.	.	.	.	.	2r	.	.	.	.	.
=14	=14	=14	=14	=14	=14	=14	=14	=14	=14	=14	=14	=14	=14	=14	=14	=14	=14	=14	=14	=14	=14	=14	=14
2C	Chi'l	Se	Se	Cias-	Je-	2c	Chi'l	Se	Se	Cias-	Je-	2e	Chi'l	Se	Se	Cias-	Je-	2g	Chi'l	Se	Se	Cias-	Je-
2C	chia-	vo-	fia	-che-	-su	2c	chia-	-vo-	fia	-che-	-su	2e	chia-	vo-	fia	-che-	-su	2g	chia-	vo-	fia	-che-	-su
2E	-ma	-le-	il	-dun	e	2c	-ma	-le-	il	-dun	e	2e	-ma	-le-	il	-dun	e	2g	-ma	-le-	il	-dun	e
1D	fe-	-te il	tuo	sia	I'a-	1A	fe-	te il	tuo	sia	I'a-	1f	fe-	-te il	tuo	sia	I'a-	1a	fe-	-te il	tuo	sia	I'a-
2D	-del-	cor	mig-	ve-	-mor	2A	-del-	cor	mig-	ve-	-mor	2f	-del-	cor	mig-	ve-	-mor	2a	-del-	cor	mig-	ve-	-mor
=15	=15	=15	=15	=15	=15	=15	=15	=15	=15	=15	=15	=15	=15	=15	=15	=15	=15	=15	=15	=15	=15	=15	=15
1G	-men-	mon-	-lio-	-lo-	mi-	1B	-men-	-mon-	-lio-	-lo-	mi-	2.g	-men-	mon-	-lio-	-lo-	mi-	2.b	-men-	mon-	-lio-	-lo-	mi-
.	.	.	.	.	.	.	.	.	.	.	.	4f	.	.	.	.	.	4a	.	.	.	.	.
2C	.	.	.	.	.	2c	.	.	.	.	.	2e	.	.	.	.	.	2g	.	.	.	.	.
1C	-te,	-do	-re:	-ce	-o	1c	-te,	do	-re:	-ce	-o	1e	-te,	-do	-re:	-ce	-o	1g	-te,	-do	-re:	-ce	-o
2C	Sen-	Ri-	Pe-	A	Che	2c	Sen-	-Ri-	Pe-	A	Che	2c	Sen-	Ri-	Pe-	A	Che	2g	Sen-	Ri-	Pe-	A	Che
=16	=16	=16	=16	=16	=16	=16	=16	=16	=16	=16	=16	=16	=16	=16	=16	=16	=16	=16	=16	=16	=16	=16	=16
1C	-te	-cor-	-ro	rin-	mi	1g	-te	-cor-	-ro	rin-	mi	1c	-te	-cor-	-ro	rin-	mi	1cc	-te	-cor-	-ro	rin-	mi
2G	nel	-re-	chia-	-gra-	fa	2g	nel	-re-	chia-	-gra-	fa	2d	nel	-re-	chia-	-gra-	fa	2b	nel	-re-	chia-	-gra-	fa
2C	cor	-te a	-ma	-ziar	dir'	4e	cor	te a	-ma	-ziar	dir'	2e	cor	-te a	-ma	-ziar	dir'	2cc	cor	-te a	-ma	-ziar	dir'
.	.	.	.	.	.	4c	.	.	.	.	.	.	.	.	.	.	.	.	.	.	.	.	.
1D	Je-	Je-	Je-	Je-	Je-	1d	Je-	-Je-	Je-	Je-	Je-	1f#i	Je-	Je-	Je-	Je-	Je-	1a	Je-	Je-	Je-	Je-	Je-
=17	=17	=17	=17	=17	=17	=17	=17	=17	=17	=17	=17	=17	=17	=17	=17	=17	=17	=17	=17	=17	=17	=17	=17
1.GG	-su.	-su.	-su.	-su.	-su.	0.dl	-su.	su.	-su.	-su.	-su.	0.gl	-su.	-su.	-su.	-su.	-su.	0.gl	-su.	-su.	-su.	-su.	-su.
1.Gl	.	.	.	.	.	.	.	.	.	.	.	.	.	.	.	.	.	.	.	.	.	.	.
==	==	==	==	==	==	==	==	==	==	==	==	==	==	==	==	==	==	==	==	==	==	==	==
*-	*-	*-	*-	*-	*-	*-	*-	*-	*-	*-	*-	*-	*-	*-	*-	*-	*-	*-	*-	*-	*-	*-	*-
!!!RDF**kern: l=long note in original notation
!!!RDF**kern: i=editorial accidental
!!!ENC: Jesse Rodin
!!!END: 2019/12/08/
!!!EED: Jesse Rodin
!!!EEV: 2019/12/10/
!!!ONB: Translated from MusicXML and edited on 2019/12/10/ by Craig Sapp
!!muse2ps: C^@{COM}\n@{SMS}^u^Lauda on Visin visin visin^v140,140,140,150z18l2300t500
